X:24
T:Polska (allmän)
T:Svenska Folkdansar H2 nr 24
B:Traditioner av Svenska Folkdansar Häfte 2, nr 24
R:Polska
Z:Nils L
U:V=wedge
U:t=tenuto
M:3/4
L:1/8
K:Eb
e2 e2 c2 | d>e f2 ed | Ve2 te4 :: g>a g2 e2 | f>g a2 ag | Vf2 tf4 | 
g>a b2 e2 | d>e f2 ed | Ve2 te4 :|

